X:1
T:The Chicken
T:After you've gone
T:Turner Layton (1918)
C:Pee-Wee Ellis
L:1/8
Q:1/4=120
M:4/4
K:C
V:1 treble-8 nm="Acoustic Guitar"
V:1
"Fmaj7""^A" Acde- e4 |"Fm6" z ded"Bb7" e d3 |"Cmaj7" EGAB- B4 |"Em7" z ABA"A7" B A3 || %4
"D7" A e2 e- e4 |"G7" A d2 d- d4 |"Cmaj7" z GAG BGAG |"C7" z E2 G- G4 ||"Fmaj7""^B" Acde- e4 | %9
"Bb7" z ded e d3 |"Cmaj7" EGAB- B4 |"Em7" z ABA"A7" B A3 |"Dm7" f4"A7" e4 |"Dm7" d^GAe-"Bb7" e d3 | %14
"Cmaj7" z ^dec"E7" =d^cdB |"Am7" c^DEB-"F#dim7" B A3 ||"Cmaj7" GAce-"A7" e4 | %17
"Dm7" z FGB"G7" d2 e2 |"Cmaj7" ec- c6- |"C7" c4 z4 |] %20

